public/primaries/AlignLeft.svg

<svg id="Layer_1" data-name="Layer 1" xmlns="http://www.w3.org/2000/svg" width="64" height="64" viewBox="0 0 64 64"><defs><style>.cls-1{fill-rule:evenodd}</style></defs><title>Icons 200</title><path class="cls-1" d="M14 46h24a2 2 0 0 1 0 4H14a2 2 0 0 1 0-4zm36-4H14a2 2 0 1 1 0-4h36a2 2 0 1 1 0 4zM14 30h34a2 2 0 1 1 0 4H14a2 2 0 0 1 0-4zm0-8h28a2 2 0 1 1 0 4H14a2 2 0 1 1 0-4zm36-4H14a2 2 0 0 1 0-4h36a2 2 0 0 1 0 4z"/></svg>

<svg id="Layer_1" data-name="Layer 1" xmlns="http://www.w3.org/2000/svg" width="64" height="64" viewBox="0 0 64 64">
  <defs>
    <style>
      .cls-1 {
        fill-rule: evenodd;
      }
    </style>
  </defs>
  <title>Icons 200</title>
  <path class="cls-1" d="M14,46H38a2,2,0,0,1,0,4H14A2,2,0,0,1,14,46Zm36-4H14a2,2,0,1,1,0-4H50A2,2,0,1,1,50,42ZM14,30H48a2,2,0,1,1,0,4H14A2,2,0,0,1,14,30Zm0-8H42a2,2,0,1,1,0,4H14A2,2,0,1,1,14,22Zm36-4H14a2,2,0,0,1,0-4H50A2,2,0,0,1,50,18Z"/>
</svg>
